X: 21683
T: CEASE NOT TO ROW, BRAVE BOYS
R: jig
B: K\"ohler's Violin Repository, v.2, 1885 p.168 #3
F: http://www.archive.org/details/klersviolinrepos02rugg
Z: 2012 John Chambers <jc:trillian.mit.edu>
M: 6/8
L: 1/8
Q: "Moderato."
K: C
uE !segno!|\
CEE {FED}E2uG | EGF EDC | CEE {FED}E2uc | {Bc}B>A^G (.A2.c) |\
CEE {FED}(.E2.G) | EGF EDC | CEE Ece | {e}dcB (.A2.c) :|
|: vceg ceg | (c/B/c/d/e/f/) gec | cec' (a/g/f/e/d/c/) | deg {ba^g}a2c' |\
ceg ceg | (c/B/c/d/e/f/) gec | (f/e/d/c/B/A/) {A}(GF/E/D/C/) | DEG A2ue |
ceg ceg | (c/B/c/d/e/f/) gec | cec' (a/g/f/e/d/c/) | deg {ba^g}a2uc' |\
ceg (e<c)ue | (d<B)vd c>d{cd}He | CEE EAc | {Bc}B>A^G (.A2.c) |]

% newpage

%%sep 2 1 500

